material/.icons/material/bus-stop-covered.svg

<svg xmlns="http://www.w3.org/2000/svg" viewBox="0 0 24 24"><path d="M20 3H7V2H6a1.78 1.78 0 00-1.41 1H2v2h1.73C2 10.58 2 22 2 22h5V5h13m2 3.5a2.5 2.5 0 10-3 2.5v11h1V11a2.5 2.5 0 002-2.5m-7 3V16h-1v6h-1.5v-5h-1v5H10v-6H9v-4.5a1.5 1.5 0 011.5-1.5h3a1.5 1.5 0 011.5 1.5m-3-5A1.5 1.5 0 1013.5 8 1.5 1.5 0 0012 6.5z"/></svg>

<?xml version="1.0" encoding="UTF-8"?><!DOCTYPE svg PUBLIC "-//W3C//DTD SVG 1.1//EN" "http://www.w3.org/Graphics/SVG/1.1/DTD/svg11.dtd"><svg xmlns="http://www.w3.org/2000/svg" xmlns:xlink="http://www.w3.org/1999/xlink" version="1.1" id="mdi-bus-stop-covered" width="24" height="24" viewBox="0 0 24 24"><path d="M20 3H7V2H6A1.78 1.78 0 0 0 4.59 3H2V5H3.73C2 10.58 2 22 2 22H7V5H20M22 8.5A2.5 2.5 0 1 0 19 11V22H20V11A2.5 2.5 0 0 0 22 8.5M15 11.5V16H14V22H12.5V17H11.5V22H10V16H9V11.5A1.5 1.5 0 0 1 10.5 10H13.5A1.5 1.5 0 0 1 15 11.5M12 6.5A1.5 1.5 0 1 0 13.5 8A1.5 1.5 0 0 0 12 6.5Z" /></svg>
